src/assets/icons/bookmarked.svg

<?xml version="1.0" encoding="UTF-8"?>
<svg width="17px" height="19px" viewBox="0 0 17 19" version="1.1" xmlns="http://www.w3.org/2000/svg" xmlns:xlink="http://www.w3.org/1999/xlink">
    <!-- Generator: Sketch 43.2 (39069) - http://www.bohemiancoding.com/sketch -->
    <title></title>
    <desc>Created with Sketch.</desc>
    <defs></defs>
    <g id="Page-1" stroke="none" stroke-width="1" fill="none" fill-rule="evenodd">
        <path d="M14.3482298,1.28569555 L2.65178726,1.28569555 C2.48437634,1.28569555 2.31696543,1.31917774 2.16071524,1.3861421 C1.66964323,1.57587447 1.35714286,2.0334643 1.35714286,2.53569704 L1.35714286,16.9218749 C1.35714286,17.4241076 1.66964323,17.8816975 2.16071524,18.0714298 C2.31696543,18.1383942 2.48437634,18.1718764 2.65178726,18.1718764 C2.99776981,18.1718764 3.32143091,18.0379477 3.57812765,17.8035724 L8.50000851,13.0714239 L13.4218894,17.8035724 C13.6785861,18.0379477 14.0022472,18.1607157 14.3482298,18.1607157 C14.5156407,18.1607157 14.6830516,18.1383942 14.8393018,18.0714298 C15.3303738,17.8816975 15.6428742,17.4241076 15.6428742,16.9218749 L15.6428742,2.53569704 C15.6428742,2.0334643 15.3303738,1.57587447 14.8393018,1.3861421 C14.6830516,1.31917774 14.5156407,1.28569555 14.3482298,1.28569555 Z" id="" stroke="#000000" fill="#000000"></path>
    </g>
</svg>

<svg width="17" height="19" viewBox="0 0 17 19" xmlns="http://www.w3.org/2000/svg"><title></title><path d="M14.348 1.286H2.652c-.168 0-.335.033-.491.1-.491.19-.804.647-.804 1.15v14.386c0 .502.313.96.804 1.15.156.066.323.1.49.1.347 0 .67-.134.927-.368L8.5 13.07l4.922 4.733c.257.234.58.357.926.357.168 0 .335-.023.491-.09.491-.19.804-.647.804-1.15V2.537c0-.503-.313-.96-.804-1.15a1.247 1.247 0 0 0-.49-.1z" stroke="#000" fill-rule="evenodd"/></svg>
